X:1
T:Title
%%score { ( 1 3 ) | ( 2 4 ) }
L:1/8
M:6/8
K:G
V:1 treble nm="Grand Piano"
V:3 treble 
V:2 bass 
V:4 bass 
V:1
 z3 z2[Q:1/4=100] G | B2 c [DB][CA][B,G] | AGE [B,D]3 | DEF GFG |[M:5/8] [^CGB]3 [DFA]2 | %5
[M:1/8] [G,G] |[M:3/4] [DB]2 [Ec][DB] [CA][B,G] | AG E [B,D]3 | DE FG A[^CGB] | [FA]4 z2 | %10
 [Gd]3 [DB]3 | [G,EG]3 [G,CE]3 | [G,B,D][G,B,E] [G,B,F][B,DG] [B,DF][B,DG] | [^CGB]3 [DFA]3 | %14
 d3 B3 | A2 z2 z2 | [G,D][G,DE] [G,DF][B,DG] [CDA][DGB] | [CFA]3 [B,G]3 |] %18
V:2
 z3 z2 G, | [G,D]2 [G,E] [G,,G,]2 [G,,G,] | [C,E,C]2 [C,G,C] [G,,G,]3 | %3
 [G,B,][G,B,D][G,B,D] [E,B,D][E,B,D][E,B,D] |[M:5/8] A,,3 D,2 |[M:1/8] B,, | %6
[M:3/4] G,2 G, [G,,G,]2 [G,,G,] | [C,E,C]2 [C,G,C] [G,,G,]3 | %8
 [G,B,][G,B,D] [G,B,D][E,B,D] [E,B,D]A,, | z2 C G,,3 | [G,B,]3 G,3 | C,3 C,3 | G,,G,, G,,E, E,E, | %13
 A,,3 D,3 | [G,B,G]3 [G,D]3 | z2 G C,3 | B,,B,, B,,G,, G,,G,, | D,3 G,,3 |] %18
V:3
 x6 | x6 | x6 | x6 |[M:5/8] x5 |[M:1/8] x |[M:3/4] x6 | x6 | x6 | D2 z [B,G]3 | x6 | x6 | x6 | x6 | %14
 x6 | E3 [G,E]3 | x6 | x6 |] %18
V:4
 x6 | x6 | x6 | x6 |[M:5/8] x5 |[M:1/8] x |[M:3/4] x6 | x6 | x6 | D,4 z2 | x6 | x6 | x6 | x6 | x6 | %15
 [C,G,]4 z2 | x6 | x6 |] %18

